X:60
T:Staten Island
Z: id:dc-hornpipe-54
M:C|
L:1/8
K:D Major
AG|FDFG A2AB|dfed BcdB|A2AB AFDF|G2E2 E2AG|!
FDFG A2AB|dfec dcBA|d2d2 efge|f2d2 d2:|!
K:D Mixolydian
fg|agfa gfeg|fedf edBA|c2c2 cde2|c2c2 cde2|!
agfa gfeg|fedf edBA|d2d2 efge|f2d2 d2:|!

